icons/fight.svg

<svg width="24" height="24" viewBox="0 0 24 24" fill="none" xmlns="http://www.w3.org/2000/svg">
<path d="M18 5C18.2652 5 18.5196 4.89464 18.7071 4.70711C18.8946 4.51957 19 4.26522 19 4C19 3.73478 18.8946 3.48043 18.7071 3.29289C18.5196 3.10536 18.2652 3 18 3C17.7348 3 17.4804 3.10536 17.2929 3.29289C17.1054 3.48043 17 3.73478 17 4C17 4.26522 17.1054 4.51957 17.2929 4.70711C17.4804 4.89464 17.7348 5 18 5Z" stroke="white" stroke-width="2" stroke-linecap="round" stroke-linejoin="round"/>
<path d="M3 9L7.5 10L10.5 12.5" stroke="white" stroke-width="2" stroke-linecap="round" stroke-linejoin="round"/>
<path d="M13 21V13L16 7.5" stroke="white" stroke-width="2" stroke-linecap="round" stroke-linejoin="round"/>
<path d="M8 4.5L12 6.5L16 7.5L20 11L18 14.5" stroke="white" stroke-width="2" stroke-linecap="round" stroke-linejoin="round"/>
</svg>

<svg
  width="24"
  height="24"
  viewBox="0 0 24 24"
  xmlns="http://www.w3.org/2000/svg"
  fill="none"
  stroke="currentColor"
  stroke-width="2"
  stroke-linecap="round"
  stroke-linejoin="round"
>
  <path d="M18 5a1 1 0 1 0 0-2 1 1 0 0 0 0 2z" />
  <path d="M3 9l4.5 1 3 2.5" />
  <path d="M13 21v-8l3-5.5" />
  <path d="M8 4.5l4 2 4 1 4 3.5-2 3.5" />
</svg>
